!!!COM: Palestrina, Giovanni Perluigi da
!!!OPR: Dum complerentur
!!!OTL: Agnus II
**kern	**kern	**kern	**kern	**kern	**kern
*Ibass	*Itenor	*Itenor	*Icalto	*Icalto	*Icant
!Bassus	!Tenor 2	!Tenor 1	!Altus 2	!Altus 1	!Cantus
*clefF4	*clefGv2	*clefGv2	*clefG2	*clefG2	*clefG2
*k[b-]	*k[b-]	*k[b-]	*k[b-]	*k[b-]	*k[b-]
*F:ion	*F:ion	*F:ion	*F:ion	*F:ion	*F:ion
*M4/2	*M4/2	*M4/2	*M4/2	*M4/2	*M4/2
=1	=1	=1	=1	=1	=1
0r	0r	0r	0r	1r	1cc
.	.	.	.	1f	[1ff
=2	=2	=2	=2	=2	=2
0r	0r	0r	0r	2a	2ff]
.	.	.	.	2b-	2dd
.	.	.	.	1cc	1ee
=3	=3	=3	=3	=3	=3
0r	0r	0r	0r	2a	2.cc
.	.	.	.	2.cc	.
.	.	.	.	.	4dd
.	.	.	.	.	2ee
.	.	.	.	4b-	.
.	.	.	.	4a	[2ff
.	.	.	.	4g	.
=4	=4	=4	=4	=4	=4
0r	0r	0r	1f	2.a	4ff]
.	.	.	.	.	8ee
.	.	.	.	.	8dd
.	.	.	.	.	2cc
.	.	.	.	4g	.
.	.	.	2a	2f	1dd
.	.	.	2b-	2g	.
=5	=5	=5	=5	=5	=5
0r	0r	1r	0cc	2e	2g
.	.	.	.	1f	2a
.	.	1c	.	.	1g
.	.	.	.	2e	.
=6	=6	=6	=6	=6	=6
1F	0r	1.f	2a	2.f	4f
.	.	.	.	.	4g
.	.	.	1cc	.	4a
.	.	.	.	8e	4b-
.	.	.	.	8d	.
2A	.	.	.	2c	4cc
.	.	.	.	.	4a
2B-	.	2d	4b-	[2g	2dd
.	.	.	4a	.	.
=7	=7	=7	=7	=7	=7
1c	0r	1e	1g	2g]	[0cc
.	.	.	.	2e	.
2A	.	2.c	2a	2f	.
[2c	.	.	4g	4e	.
.	.	4d	4f	4d	.
=8	=8	=8	=8	=8	=8
4c]	1r	2e	2g	1c	1cc]
4B-	.	.	.	.	.
4A	.	1f	2.cc	.	.
4G	.	.	.	.	.
2A	1c	.	.	1r	1r
.	.	.	4b-	.	.
2A	.	2e	4a	.	.
.	.	.	4g	.	.
=9	=9	=9	=9	=9	=9
2.F	1.f	2d	1a	1r	2r
.	.	1c	.	.	2cc
4E	.	.	.	.	.
1D	.	.	1f	1d	1ff
.	2d	2B	.	.	.
=10	=10	=10	=10	=10	=10
1C	1e	1c	2r	1.g	2ee
.	.	.	2c	.	4gg
.	.	.	.	.	4ff
1r	2.c	2r	2e	.	4ee
.	.	.	.	.	4dd
.	.	2F	2f	2a	[2cc
.	4d	.	.	.	.
=11	=11	=11	=11	=11	=11
1r	2e	2c	2g	2g	4cc]
.	.	.	.	.	4g
.	1f	2A	2a	4f	2cc
.	.	.	.	4e	.
2r	.	2B-	1g	2d	2b-
2C	2e	2c	.	2c	2g
=12	=12	=12	=12	=12	=12
2G	2d	1G	1g	2d	2b-
2E	1c	.	.	2e	2cc
2F	.	1r	2a	1d	1dd
2G	2B	.	4g	.	.
.	.	.	4f	.	.
=13	=13	=13	=13	=13	=13
1C	1c	2r	4e	1g	1cc
.	.	.	4d	.	.
.	.	1c	2e	.	.
1F	1r	.	1f	1c	1a
.	.	2f	.	.	.
=14	=14	=14	=14	=14	=14
1B-	2r	4f	1d	0r	1dd
.	.	4e	.	.	.
.	2f	4d	.	.	.
.	.	4c	.	.	.
2B-	2f	2B-	1r	.	2dd
2A	2f	2c	.	.	2cc
=15	=15	=15	=15	=15	=15
2G	2B-	2d	0r	1r	2b-
2F	1d	1f	.	.	2a
1G	.	.	.	1g	1b-
.	4c	2e	.	.	.
.	4B-	.	.	.	.
=16	=16	=16	=16	=16	=16
1F	2c	1f	2r	1cc	1.a
.	2A	.	2c	.	.
1r	1d	1r	1f	2cc	.
.	.	.	.	2b-	4g
.	.	.	.	.	4f
=17	=17	=17	=17	=17	=17
0r	1c	1r	2f	2a	2cc
.	.	.	2e	2g	2cc
.	1r	2r	2d	1a	1ff
.	.	2F	2c	.	.
=18	=18	=18	=18	=18	=18
0r	0r	1B-	1d	1.f	4ff
.	.	.	.	.	4ee
.	.	.	.	.	4dd
.	.	.	.	.	4cc
.	.	2B-	2d	.	2b-
.	.	2A	2c	2cc	2f
=19	=19	=19	=19	=19	=19
0r	0r	2G	2d	2b-	2g
.	.	2F	2f	2a	2a
.	.	1G	2e	[1g	2b
.	.	.	4d	.	[2cc
.	.	.	4c	.	.
=20	=20	=20	=20	=20	=20
1r	1G	2G	1d	1g]	2cc]
.	.	2d	.	.	2b
1C	1c	4e	2c	1g	[1cc
.	.	4f	.	.	.
.	.	4g	2G	.	.
.	.	4e	.	.	.
=21	=21	=21	=21	=21	=21
1F	2c	1f	2A	0r	0cc]
.	2B-	.	2B-	.	.
2F	2A	2f	1c	.	.
2E	2G	2g	.	.	.
=22	=22	=22	=22	=22	=22
2D	4A	2f	2d	0r	2r
.	4B	.	.	.	.
2C	1c	2e	2e	.	2cc
1D	.	1d	2.f	.	1ff
.	2B	.	.	.	.
.	.	.	8e	.	.
.	.	.	8d	.	.
=23	=23	=23	=23	=23	=23
1C	1c	1G	2.g	2r	2ff
.	.	.	.	2c	2ee
.	.	.	4a	.	.
1r	1r	1r	2b	2g	2dd
.	.	.	2cc	2a	2cc
=24	=24	=24	=24	=24	=24
1r	2r	0r	2cc	1g	1dd
.	2g	.	2b	.	.
2r	4g	.	1cc	1c	1cc
.	4f	.	.	.	.
2c	4e	.	.	.	.
.	4d	.	.	.	.
=25	=25	=25	=25	=25	=25
4c	2e	0r	0r	2r	0r
4B-	.	.	.	.	.
4A	2e	.	.	2cc	.
4G	.	.	.	.	.
2A	1c	.	.	4cc	.
.	.	.	.	4b-	.
2A	.	.	.	4a	.
.	.	.	.	4g	.
=26	=26	=26	=26	=26	=26
2F	4f	0r	0r	2a	2r
.	4e	.	.	.	.
2.B-	4d	.	.	2f	2dd
.	4c	.	.	.	.
.	[1d	.	.	2f	4dd
4A	.	.	.	.	4cc
4G	.	.	.	[2g	4b-
4F	.	.	.	.	4a
=27	=27	=27	=27	=27	=27
2G	2d]	2g	0r	4g]	2b-
.	.	.	.	4f	.
2.c	2e	4g	.	4e	2g
.	.	4f	.	4d	.
.	1c	4e	.	2e	2g
4B-	.	4d	.	.	.
4A	.	2e	.	[2c	[2cc
4G	.	.	.	.	.
=28	=28	=28	=28	=28	=28
1A	2r	2e	0r	2c]	4cc]
.	.	.	.	.	4b-
.	1F	2c	.	2.f	4a
.	.	.	.	.	4g
1F	.	2.f	.	.	1a
.	.	.	.	4e	.
.	2A	.	.	[2d	.
.	.	4e	.	.	.
=29	=29	=29	=29	=29	=29
0G	2B-	2d	1r	2d]	1.g
.	2c	2e	.	1c	.
.	2d	1d	2r	.	.
.	2G	.	2g	2B	2d
=30	=30	=30	=30	=30	=30
0C	2r	1c	4g	0c	2.e
.	.	.	4f	.	.
.	2g	.	4e	.	.
.	.	.	4d	.	4f
.	4g	2r	2e	.	1g
.	4f	.	.	.	.
.	4e	2c	2e	.	.
.	4d	.	.	.	.
=31	=31	=31	=31	=31	=31
0r	2e	4c	1.c	2r	1cc
.	.	4B-	.	.	.
.	2e	4A	.	2cc	.
.	.	4G	.	.	.
.	1c	2A	.	4cc	1r
.	.	.	.	4b-	.
.	.	2A	[2cc	4a	.
.	.	.	.	4g	.
=32	=32	=32	=32	=32	=32
0r	2.f	1F	4cc]	2a	2r
.	.	.	4b-	.	.
.	.	.	4a	1f	2ff
.	4e	.	4g	.	.
.	4d	2.B-	2f	.	4ff
.	4c	.	.	.	4ee
.	2d	.	[2b-	2f	4dd
.	.	4A	.	.	4cc
=33	=33	=33	=33	=33	=33
0r	1g	4G	4b-]	2.b-	2dd
.	.	4F	4a	.	.
.	.	2G	4g	.	2dd
.	.	.	4f	4a	.
.	[1e	2.c	2g	4g	2cc
.	.	.	.	4f	.
.	.	.	2c	2g	[2cc
.	.	4B-	.	.	.
=34	=34	=34	=34	=34	=34
0r	2e]	4A	2.cc	1c	4cc]
.	.	4G	.	.	4b-
.	2e	2A	.	.	4a
.	.	.	4b-	.	4g
.	2f	1F	4a	[1cc	1a
.	.	.	4g	.	.
.	2f	.	[2f	.	.
=35	=35	=35	=35	=35	=35
2r	1g	1c	2f]	1cc]	2g
2c	.	.	2e	.	2cc
4c	1f	[1F	2.f	2r	2.a
4B-	.	.	.	.	.
4A	.	.	.	2cc	.
4G	.	.	8e	.	4b-
.	.	.	8d	.	.
=36	=36	=36	=36	=36	=36
2A	2r	1F]	1c	4cc	1cc
.	.	.	.	4b-	.
2A	2f	.	.	4a	.
.	.	.	.	4g	.
1F	4f	2f	1r	2a	2r
.	4e	.	.	.	.
.	4d	4f	.	2a	2ff
.	4c	4e	.	.	.
=37	=37	=37	=37	=37	=37
2.B-	1d	4d	2r	1f	4ff
.	.	4c	.	.	4ee
.	.	1d	2d	.	4dd
4A	.	.	.	.	4cc
4G	2.g	.	2B-	2.b-	1dd
4F	.	.	.	.	.
2G	.	[2g	2B-	.	.
.	4f	.	.	4a	.
=38	=38	=38	=38	=38	=38
0C	4e	4g]	1c	1g	2.gg
.	4d	4f	.	.	.
.	2e	4e	.	.	.
.	.	4d	.	.	4ff
.	2c	2e	2cc	2g	4ee
.	.	.	.	.	4dd
.	2G	[2c	4cc	2cc	2ee
.	.	.	4b-	.	.
=39	=39	=39	=39	=39	=39
2.F	1A	2c]	4a	4cc	1cc
.	.	.	4g	4b-	.
.	.	2.f	2a	4a	.
4E	.	.	.	4g	.
4D	2r	.	2f	2a	2.ff
4C	.	4e	.	.	.
2D	2f	4d	2f	2a	.
.	.	4c	.	.	4ee
=40	=40	=40	=40	=40	=40
1BB-	4f	2d	2.b-	1d	4dd
.	4e	.	.	.	4cc
.	4d	2.B-	.	.	2dd
.	4c	.	8a	.	.
.	.	.	8g	.	.
1BB-	2d	.	2f	2r	1b-
.	.	4A	.	.	.
.	2d	4F	2b-	[2f	.
.	.	4G	.	.	.
=41	=41	=41	=41	=41	=41
0F	4c	2.A	4a	2f]	1.cc
.	4B-	.	4b-	.	.
.	4A	.	4cc	2f	.
.	4G	4B-	4b-	.	.
.	4F	[1c	4a	2f	.
.	4G	.	4g	.	.
.	2A	.	[2f	2f	2cc
=42	=42	=42	=42	=42	=42
0C	0G	0c]	2f]	0g	2cc
.	.	.	4e	.	2cc
.	.	.	4d	.	.
.	.	.	1e	.	1cc
=43	=43	=43	=43	=43	=43
0F	0F	0c	0f	0a	0cc
==	==	==	==	==	==
*-	*-	*-	*-	*-	*-
!!!CDT: 1525/^1526/-1594/2/2
!!!OCY: Italia
!!!AGN: Mass (Parody)
!!!AST: renaissance, vocal
!!!ASW: Motet 1569 (Palestrina)
!!!PWK: Masses, Book 8
!!!RNB: Cadence finals: C
!!!YOR: Le Opere Complete, v. 24, p. 117
!!!YOO: Rome, Italy: Fratelli Scalera
!!!END: 1992//
!!!EED: John Miller
!!!YEC: Copyright 2000, John Miller
!!!YEN: United States of America
!!!YEM: Rights to all derivative electronic formats reserved.
!!!YEM: Refer to licensing agreement for further details.
!!!YEM: This file must be accompanied by the licensing agreement.
!!!YEM: A copy of the licensing agreement may be found at http://www.music-cog.ohio-state.edu/HumdrumDatabases/Palestrina/license.txt
!!!EMD: converted to Humdrum by Bret Aarden
